!!!COM:	Pierre de la Rue
**kern	**kern
*part2	*part1
*staff2	*staff1
*clefF4	*clefF4
*k[]	*k[]
*M2/1	*M2/1
=1-	=1-
0G	0r
=2	=2
2A	0r
2A	.
1F	.
=3	=3
2r	0c
2E	.
2F	.
2F	.
=4	=4
1D	2d
.	2d
2G	1B
[2G	.
=5	=5
2G]	2r
2F	2A
2.G	2B
.	2B
4F	.
=6	=6
4G	1G
4F	.
4E	.
4D	.
1E	2c
.	[2c
=7	=7
1D	2c]
.	2B
2r	2.c
[2A	.
.	4B
=8	=8
2A]	4c
.	4B
1G	4A
.	4G
.	1A
2F	.
=9	=9
2G	1G
2E	.
2F	2r
2D	[2d
=10	=10
1E	2d]
.	1c
2r	.
2D	2B
=11	=11
2E	2c
2F	2A
1G	2B
.	2G
=12	=12
2.F	1A
4E	.
2D	2r
[2C	2G
=13	=13
4C]	2A
4BB	.
4AA	2B
4GG	.
1AA	1c
=14	=14
1GG	2.B
.	4A
2r	2G
2D	[2F
=15	=15
4E	4F]
4F	4E
4G	4D
4E	4C
1F	1D
=16	=16
2.E	1C
4D	.
2C	2r
2BB	2G
=17	=17
1AA	4A
.	4B
.	4c
.	4A
1GG	1B
=18	=18
2r	2.A
2D	.
.	4G
2F	2F
2G	2E
=19	=19
2A	1D
2B	.
2.c	1C
4B	.
=20	=20
4A	2r
4G	.
1B	2G
.	2B
[2A	2c
=21	=21
2A]	2d
2G	2e
2.A	2.f
4G	4e
=22	=22
4F	4d
4E	4c
2.G	1e
4F	.
4E	[2d
4D	.
=23	=23
1E	2d]
.	2c
2D	2.d
2F	.
.	4c
=24	=24
2G	4B
.	4A
2.A	2.c
4G	4B
[2G	4A
.	4G
=25	=25
2G]	1A
2F	.
1G	1G
==	==
*-	*-
